icons/desktop/16/svg/gift-16.svg

<svg width="16" height="16" viewBox="0 0 16 16" fill="none" xmlns="http://www.w3.org/2000/svg">
<g clip-path="url(#clip0_8069_32521)">
<path fill-rule="evenodd" clip-rule="evenodd" d="M6 0C6.78921 0 7.49857 0.334032 8 0.866211C8.50143 0.334032 9.21079 0 10 0H10.25C11.7692 0 13 1.23079 13 2.75C13 3.24892 12.8639 3.71483 12.6318 4.11816C12.969 4.13516 13.3027 4.15263 13.6328 4.17285C14.6955 4.23916 15.4999 5.12544 15.5 6.1709V7.25C15.5 7.98948 15.097 8.63341 14.5 8.97949V13.0215C14.4998 14.4034 13.4666 15.5868 12.0859 15.7539C10.5776 15.9369 9.20225 16.001 8 16.001C6.52557 16.001 5.16684 15.904 3.94531 15.7578C2.56265 15.593 1.50025 14.4354 1.5 13.0244V8.97949C0.902951 8.63341 0.5 7.98948 0.5 7.25V6.17188C0.500065 5.11768 1.32383 4.2351 2.37988 4.1709C2.71165 4.15072 3.04083 4.13453 3.36719 4.11816C3.13523 3.71493 3 3.24875 3 2.75C3 1.23079 4.23079 0 5.75 0H6ZM3 13.0244C3.00024 13.657 3.47604 14.1914 4.12305 14.2686L5.02344 14.3643C5.72603 14.4287 6.46953 14.4731 7.25 14.4912V9.25H3V13.0244ZM8.75 9.25V14.4902C9.71035 14.4679 10.7684 14.4026 11.9053 14.2646C12.5241 14.1896 12.9998 13.653 13 13.0215V9.25H8.75ZM7.25 5.50488C5.73019 5.51759 4.13479 5.56771 2.4707 5.66895C2.21084 5.68474 2.00007 5.90618 2 6.17188V7.25C2 7.52579 2.22421 7.75 2.5 7.75H7.25V5.50488ZM8.75 7.75H13.5C13.7758 7.75 14 7.52579 14 7.25V6.1709C13.9999 5.89851 13.7932 5.6857 13.54 5.66992C12.0183 5.57672 10.4192 5.51957 8.75 5.50586V7.75ZM5.75 1.5C5.05921 1.5 4.5 2.05921 4.5 2.75C4.5 3.44079 5.05921 4 5.75 4H7.25V2.75C7.25 2.05921 6.69079 1.5 6 1.5H5.75ZM10 1.5C9.30921 1.5 8.75 2.05921 8.75 2.75V4H10.25C10.9408 4 11.5 3.44079 11.5 2.75C11.5 2.05921 10.9408 1.5 10.25 1.5H10Z" fill="black"/>
</g>
<defs>
<clipPath id="clip0_8069_32521">
<rect width="16" height="16" fill="white"/>
</clipPath>
</defs>
</svg>

<!-- This Source Code Form is subject to the terms of the Mozilla Public
   - License, v. 2.0. If a copy of the MPL was not distributed with this
   - file, You can obtain one at http://mozilla.org/MPL/2.0/. -->
<svg xmlns="http://www.w3.org/2000/svg" width="16" height="16" fill="context-fill" fill-opacity="context-fill-opacity" viewBox="0 0 16 16">
    <path fill-rule="evenodd" d="M6 0c.79 0 1.499.334 2 .866A2.74 2.74 0 0 1 10 0h.25A2.75 2.75 0 0 1 13 2.75c0 .499-.136.965-.368 1.368q.505.025 1 .055A1.996 1.996 0 0 1 15.5 6.17V7.25c0 .74-.403 1.383-1 1.73v4.041a2.755 2.755 0 0 1-2.414 2.733 34 34 0 0 1-8.14.004A2.76 2.76 0 0 1 1.5 13.024V8.98c-.597-.346-1-.99-1-1.729V6.172c0-1.054.824-1.937 1.88-2.001q.497-.029.987-.053A2.75 2.75 0 0 1 5.75 0zM3 13.024c0 .633.476 1.167 1.123 1.245l.9.095q1.056.1 2.227.127V9.25H3zM8.75 9.25v5.24a32 32 0 0 0 3.155-.225A1.255 1.255 0 0 0 13 13.02V9.25zm-1.5-3.745c-1.52.013-3.115.063-4.78.164a.506.506 0 0 0-.47.503V7.25a.5.5 0 0 0 .5.5h4.75zm1.5 2.245h4.75a.5.5 0 0 0 .5-.5V6.17a.496.496 0 0 0-.46-.5 91 91 0 0 0-4.79-.164zm-3-6.25a1.25 1.25 0 1 0 0 2.5h1.5V2.75c0-.69-.56-1.25-1.25-1.25zm4.25 0c-.69 0-1.25.56-1.25 1.25V4h1.5a1.25 1.25 0 1 0 0-2.5z" clip-rule="evenodd" />
</svg>
